X:93
T:Danse de la Reine d'avril
O:France
Z:Transcrit et/ou corrigé par B@D - 2005-03-13
Z:Pour toute observation mailto:-@-
M:3/4
L:1/4
%%staves (1 2)
K:G
%%continueall 1
%%maxshrink 0.8
V:1
[P:GRAZIOSO]B2c | d2d | d2B | A2z || [P:CHOEUR] [F3B3] | [G3c3] | [A3d3]- | [A2d2]z ||
w:Quand le ciel se vêt de clair, E-_ya~!_
B2c | d2d | d2B | A2z || [F3B3] | [E3G3] | [E3A3]- | [E2A2]z ||
w:Ou-bli-ons le triste hi-ver,  E-_ya~!_
B2c | d2d | d2B | A2z || [F3B3] | [G3c3] | [A3d3]- | [A2d2]z ||
w:Et le deuil du coeur a-mer,  E-_ya~!_
B2c | d2d | d2B | A2B || A2G | A2B | (A>GF) |G2z ||
w:Car aux champs voi-ci la Rei-ne Que la danse en-traî-__ne
V:2
G2E | D2E | F2G | D2x | B,3 | E3 | D3- | D2x |
G2E | D2E | F2G | D2x || B,3 |E3 | A,3- | A,2 x|
G2E | D2E | F2G | D2x | B,3 | E3 | D3- | D2x |
G2E | D2E | F2G | D2G ||C2B, | C2D |(C>B,A,) |G,2z ||
T:
%%staves [A B C]
V:A
[P:REFRAIN-CHOEUR] d2d | d2B | c2c | (c>B)A | !breath!B2B | A2G | !breath!F2G | G2A | !breath!B2G |
w:Loin de ses é-bats tou-chants,_ fuy-ez, mé-chants, mé-chants Et dans les champs et
G2F | !breath!G2d | (ed)B | c2(c/B/) | (A2G) | (A>G) F | G2z |]
w:dans les champs Que rè-_gnent seuls sa_ dan-se et_ nos chants.
V:B
z2z | G2G | G2E | F2F | (F>E)D | E2E | !breath!D2G | G2E | !breath!F2G |
w:Loin de ces é-bats tou-chants,_ fuy-ez, mé-chants, mé-chants Et deans les champs et
G2A |B3- | B2G | (AG)E | =F2F/E/ | EED | G2z |]
w:dans les champs,_ Que rè-_gnent seuls sa_ danse et nos chants.
V:C
B,2B, | E2E | A,2A, | D2D | G,2G, | c2^C | !breath!D2E | E2C | !breath!B,2E |
w:Loin de ses é-bats tou-chants, fuy-ez, mé-chants, mé-chants Et dans les champs et
E2D | !breath!G2G | G=FD | E2D |(C2B,) |C2D |G,2z |]
w:dans les champs Que rè-_gnent seuls sa dan-se et nos chants.




%%header "$P0	 $IR 	$P1"
%%footer $D - Éditions Galouvielle - 2009 - À usage librement privé dans le cadre familial

